flaticon/office/notes-1.svg

<svg xmlns="http://www.w3.org/2000/svg" width="32" height="32" viewBox="0 0 24 24">
    <path d="M 22.949219 2.949219 L 21.683594 2.949219 L 21.683594 1.683594 C 21.683594 1.429688 21.515625 1.261719 21.261719 1.261719 L 11.945312 1.261719 C 11.757812 0.539062 11.097656 0 10.316406 0 C 9.535156 0 8.875 0.539062 8.683594 1.261719 L 1.050781 1.261719 C 0.800781 1.261719 0.632812 1.429688 0.632812 1.683594 L 0.632812 21.894531 C 0.632812 22.148438 0.800781 22.316406 1.050781 22.316406 L 2.316406 22.316406 L 2.316406 23.578125 C 2.316406 23.832031 2.484375 24 2.738281 24 L 22.949219 24 C 23.199219 24 23.367188 23.832031 23.367188 23.578125 L 23.367188 3.367188 C 23.367188 3.117188 23.199219 2.949219 22.949219 2.949219 Z M 10.316406 0.84375 C 10.625 0.84375 10.898438 1.011719 11.042969 1.261719 L 9.589844 1.261719 C 9.734375 1.011719 10.007812 0.84375 10.316406 0.84375 Z M 1.472656 2.105469 L 8.632812 2.105469 L 8.632812 4.210938 C 8.632812 5.136719 9.390625 5.894531 10.316406 5.894531 C 11.242188 5.894531 12 5.136719 12 4.210938 C 12 3.957031 11.832031 3.789062 11.578125 3.789062 C 11.328125 3.789062 11.15625 3.957031 11.15625 4.210938 C 11.15625 4.671875 10.777344 5.050781 10.316406 5.050781 C 9.851562 5.050781 9.472656 4.671875 9.472656 4.210938 L 9.472656 2.105469 L 20.84375 2.105469 L 20.84375 21.472656 L 1.472656 21.472656 Z M 22.527344 23.15625 L 3.15625 23.15625 L 3.15625 22.316406 L 21.261719 22.316406 C 21.515625 22.316406 21.683594 22.148438 21.683594 21.894531 L 21.683594 3.789062 L 22.527344 3.789062 Z M 22.527344 23.15625"/>
    <path d="M15.367188 8.84375L17.050781 8.84375C17.304688 8.84375 17.472656 8.671875 17.472656 8.421875 17.472656 8.167969 17.304688 8 17.050781 8L15.367188 8C15.117188 8 14.949219 8.167969 14.949219 8.421875 14.949219 8.671875 15.117188 8.84375 15.367188 8.84375zM10.738281 8.84375L13.683594 8.84375C13.9375 8.84375 14.105469 8.671875 14.105469 8.421875 14.105469 8.167969 13.9375 8 13.683594 8L10.738281 8C10.484375 8 10.316406 8.167969 10.316406 8.421875 10.316406 8.671875 10.484375 8.84375 10.738281 8.84375zM5.261719 8.84375L9.050781 8.84375C9.304688 8.84375 9.472656 8.671875 9.472656 8.421875 9.472656 8.167969 9.304688 8 9.050781 8L5.261719 8C5.011719 8 4.84375 8.167969 4.84375 8.421875 4.84375 8.671875 5.011719 8.84375 5.261719 8.84375zM17.050781 10.527344L13.683594 10.527344C13.429688 10.527344 13.261719 10.695312 13.261719 10.949219 13.261719 11.199219 13.429688 11.367188 13.683594 11.367188L17.050781 11.367188C17.304688 11.367188 17.472656 11.199219 17.472656 10.949219 17.472656 10.695312 17.304688 10.527344 17.050781 10.527344zM11.15625 10.527344L8.210938 10.527344C7.957031 10.527344 7.789062 10.695312 7.789062 10.949219 7.789062 11.199219 7.957031 11.367188 8.210938 11.367188L11.15625 11.367188C11.410156 11.367188 11.578125 11.199219 11.578125 10.949219 11.578125 10.695312 11.410156 10.527344 11.15625 10.527344zM5.261719 11.367188L6.527344 11.367188C6.777344 11.367188 6.949219 11.199219 6.949219 10.949219 6.949219 10.695312 6.777344 10.527344 6.527344 10.527344L5.261719 10.527344C5.011719 10.527344 4.84375 10.695312 4.84375 10.949219 4.84375 11.199219 5.011719 11.367188 5.261719 11.367188zM17.050781 13.050781L15.789062 13.050781C15.535156 13.050781 15.367188 13.222656 15.367188 13.472656 15.367188 13.726562 15.535156 13.894531 15.789062 13.894531L17.050781 13.894531C17.304688 13.894531 17.472656 13.726562 17.472656 13.472656 17.472656 13.222656 17.304688 13.050781 17.050781 13.050781zM9.472656 13.472656C9.472656 13.726562 9.640625 13.894531 9.894531 13.894531L14.105469 13.894531C14.359375 13.894531 14.527344 13.726562 14.527344 13.472656 14.527344 13.222656 14.359375 13.050781 14.105469 13.050781L9.894531 13.050781C9.640625 13.050781 9.472656 13.222656 9.472656 13.472656zM5.261719 13.894531L7.367188 13.894531C7.621094 13.894531 7.789062 13.726562 7.789062 13.472656 7.789062 13.222656 7.621094 13.050781 7.367188 13.050781L5.261719 13.050781C5.011719 13.050781 4.84375 13.222656 4.84375 13.472656 4.84375 13.726562 5.011719 13.894531 5.261719 13.894531zM17.050781 15.578125L12.421875 15.578125C12.167969 15.578125 12 15.746094 12 16 12 16.253906 12.167969 16.421875 12.421875 16.421875L17.050781 16.421875C17.304688 16.421875 17.472656 16.253906 17.472656 16 17.472656 15.746094 17.304688 15.578125 17.050781 15.578125zM9.894531 15.578125L8.210938 15.578125C7.957031 15.578125 7.789062 15.746094 7.789062 16 7.789062 16.253906 7.957031 16.421875 8.210938 16.421875L9.894531 16.421875C10.148438 16.421875 10.316406 16.253906 10.316406 16 10.316406 15.746094 10.148438 15.578125 9.894531 15.578125zM5.261719 16.421875L6.527344 16.421875C6.777344 16.421875 6.949219 16.253906 6.949219 16 6.949219 15.746094 6.777344 15.578125 6.527344 15.578125L5.261719 15.578125C5.011719 15.578125 4.84375 15.746094 4.84375 16 4.84375 16.253906 5.011719 16.421875 5.261719 16.421875zM5.261719 16.421875"/>
</svg>

<svg xmlns="http://www.w3.org/2000/svg" width="32" height="32" viewBox="0 0 24 24">
    <path d="M22.95 2.95h-1.266V1.683c0-.254-.168-.422-.422-.422h-9.317A1.689 1.689 0 0 0 10.316 0c-.78 0-1.441.54-1.632 1.262H1.05c-.25 0-.418.168-.418.422v20.21c0 .254.168.422.418.422h1.265v1.262c0 .254.168.422.422.422H22.95c.25 0 .418-.168.418-.422V3.368c0-.25-.168-.419-.418-.419zM10.315.843a.84.84 0 0 1 .727.418H9.59a.84.84 0 0 1 .726-.418zM1.473 2.105h7.16v2.106c0 .926.758 1.684 1.683 1.684.926 0 1.684-.758 1.684-1.684 0-.254-.168-.422-.422-.422-.25 0-.422.168-.422.422 0 .46-.379.84-.84.84a.844.844 0 0 1-.843-.84V2.105h11.37v19.368H1.474zm21.054 21.051H3.157v-.84h18.105c.254 0 .422-.168.422-.421V3.789h.843zm0 0"/>
    <path d="M15.367 8.844h1.684c.254 0 .422-.172.422-.422 0-.254-.168-.422-.422-.422h-1.684c-.25 0-.418.168-.418.422 0 .25.168.422.418.422zm0 0M10.738 8.844h2.946c.254 0 .421-.172.421-.422 0-.254-.168-.422-.421-.422h-2.946c-.254 0-.422.168-.422.422 0 .25.168.422.422.422zm0 0M5.262 8.844H9.05c.254 0 .422-.172.422-.422 0-.254-.168-.422-.422-.422H5.26c-.25 0-.417.168-.417.422 0 .25.168.422.418.422zm0 0M17.05 10.527h-3.366c-.254 0-.422.168-.422.422 0 .25.168.418.422.418h3.367c.254 0 .422-.168.422-.418 0-.254-.168-.422-.422-.422zm0 0M11.156 10.527H8.211c-.254 0-.422.168-.422.422 0 .25.168.418.422.418h2.945c.254 0 .422-.168.422-.418 0-.254-.168-.422-.422-.422zm0 0M5.262 11.367h1.265c.25 0 .422-.168.422-.418 0-.254-.172-.422-.422-.422H5.262c-.25 0-.418.168-.418.422 0 .25.168.418.418.418zm0 0M17.05 13.05h-1.26c-.255 0-.423.173-.423.423 0 .254.168.422.422.422h1.262c.254 0 .422-.168.422-.422 0-.25-.168-.422-.422-.422zm0 0M9.473 13.473c0 .254.168.422.422.422h4.21c.254 0 .422-.168.422-.422 0-.25-.168-.422-.422-.422h-4.21c-.254 0-.422.172-.422.422zm0 0M5.262 13.895h2.105c.254 0 .422-.168.422-.422 0-.25-.168-.422-.422-.422H5.262c-.25 0-.418.172-.418.422 0 .254.168.422.418.422zm0 0M17.05 15.578h-4.628c-.254 0-.422.168-.422.422s.168.422.422.422h4.629c.254 0 .422-.168.422-.422s-.168-.422-.422-.422zm0 0M9.895 15.578H8.21c-.254 0-.422.168-.422.422s.168.422.422.422h1.684c.253 0 .421-.168.421-.422s-.168-.422-.421-.422zm0 0M5.262 16.422h1.265c.25 0 .422-.168.422-.422s-.172-.422-.422-.422H5.262c-.25 0-.418.168-.418.422s.168.422.418.422zm0 0"/>
</svg>
